X:595
T: "Das guelden ABC"
N: Z1275
O: Europa, Mitteleuropa, Deutschland, Niederrhein
R: Natur und Welt, Religion
M: 4/4
L: 1/8
K: G
z2G2G2G2 | D4A4 | _B2AGF4
z2D2E2F2 | G4E4 | F2A2G4
z2A2A2A2 | A4=F4 | G2A2_B4
c4B2A2 | G2F4z2
z2D2E2F2 | G4E4 | F2A2G4

